X: 5342
T: Buachaill ón Éirne
R: waltz
M: 3/4
K: Gmajor
B3AB2|A2G2E2|D3DD2|E2(G2F2)|
(G6|G4)(D2|G3)AB2|c3(BA2)|
d2d2(d2|B2)G3(B|(A6)|A4)d2|
d3(BA2)|G3(AB2)|c2d2e2|d2B2G2|
(A6|A4)GA|B3(AB2)|A2G2E2|
D3DD2|(E2G2F2)|G6||

